gama.ui.shared/icons_svg/light/agents/agents.submenu.svg

<svg height="25" viewBox="-748.773 -4045.5 25 25" width="25" xmlns="http://www.w3.org/2000/svg"><g fill="none"><path d="m-741.0771-4045h12.9524c2.1271 0 3.85135 1.7243 3.85135 3.8513v13.1087c0 2.1272-1.72425 3.8515-3.85135 3.8515h-12.9524c-2.127 0-3.8513-1.7243-3.8513-3.8515v-13.1087c0-2.127 1.7243-3.8513 3.8513-3.8513z" fill="#fff"/><path d="m-741.0771-4045h12.9524c2.1271 0 3.85135 1.7243 3.85135 3.8513v13.1087c0 2.1272-1.72425 3.8515-3.85135 3.8515h-12.9524c-2.127 0-3.8513-1.7243-3.8513-3.8515v-13.1087c0-2.127 1.7243-3.8513 3.8513-3.8513z" stroke="#000" stroke-linecap="round" stroke-linejoin="round" stroke-width=".25"/><path d="m-744.422-4041.8115h12.9524c2.127 0 3.8513 1.7243 3.8513 3.8515v13.1087c0 2.127-1.7243 3.8513-3.8513 3.8513h-12.9524c-2.12705 0-3.85135-1.7243-3.85135-3.8513v-13.1087c0-2.1272 1.7243-3.8515 3.85135-3.8515z" fill="#fff"/><path d="m-744.422-4041.8115h12.9524c2.127 0 3.8513 1.7243 3.8513 3.8515v13.1087c0 2.127-1.7243 3.8513-3.8513 3.8513h-12.9524c-2.12705 0-3.85135-1.7243-3.85135-3.8513v-13.1087c0-2.1272 1.7243-3.8515 3.85135-3.8515z" stroke="#000" stroke-linecap="round" stroke-linejoin="round" stroke-width=".25"/><path d="m-741.6016-4031.8944-3.04145 1.5654c-.37465.193-.61015.579-.61015 1.0005v.585c0 .6215.5037 1.125 1.1251 1.125.2071 0 .375.1679.375.375s-.1679.375-.375.375c-1.0356 0-1.8751-.8395-1.8751-1.875v-.585c0-.7025.3925-1.3455 1.0169-1.6671l2.5183-1.2964c-.8038-.701-1.2852-1.7223-1.2852-2.8265 0-2.071 1.679-3.75 3.75-3.75 1.2575 0 2.40995.624 3.1035 1.6445.1164.171.0719.4045-.09935.521-.17125.1163-.40455.072-.52095-.0995-.5554-.8171-1.4768-1.316-2.4832-1.316-1.6568 0-3 1.3432-3 3 0 1.0588.5526 2.0218 1.4402 2.5632.17685.1079.23275.3386.1249.5153-.0404.0663-.098.1156-.1635.1456zm3.0694 3.201-3.0615 1.3914c-.4016.183-.6595.583-.6595 1.0244v.5341c0 .6215.5037 1.125 1.125 1.125h8.25c.6214 0 1.125-.5035 1.125-1.125v-.5341c0-.4414-.2578-.8414-.6594-1.0244l-3.0615-1.3914c-.467.2088-.9845.3249-1.5291.3249s-1.062-.1161-1.529-.3249zm-.7793-.4696c-.8776-.6863-1.4417-1.755-1.4417-2.9555 0-2.071 1.679-3.75 3.75-3.75 2.0711 0 3.75 1.679 3.75 3.75 0 1.2005-.564 2.2692-1.4416 2.9555l2.5925 1.1785c.6694.3042 1.0991.9715 1.0991 1.7069v.5341c0 1.0355-.8394 1.875-1.875 1.875h-8.25c-1.0355 0-1.875-.8395-1.875-1.875v-.5341c0-.7354.4298-1.4027 1.0992-1.7069zm2.3083.0445c1.6569 0 3-1.3431 3-3 0-1.6568-1.3431-3-3-3-1.6568 0-3 1.3432-3 3 0 1.6569 1.3432 3 3 3z" fill="#66727e"/></g></svg>

<?xml version="1.0" encoding="UTF-8" standalone="no"?>
<!DOCTYPE svg PUBLIC "-//W3C//DTD SVG 1.1//EN" "http://www.w3.org/Graphics/SVG/1.1/DTD/svg11.dtd">
<svg version="1.1" xmlns="http://www.w3.org/2000/svg" xmlns:xl="http://www.w3.org/1999/xlink" xmlns:dc="http://purl.org/dc/elements/1.1/" viewBox="-748.77335 -4045.5 25 25" width="25" height="25">
  <defs/>
  <g id="SOURCES" stroke-dasharray="none" fill="none" stroke="none" fill-opacity="1" stroke-opacity="1">
    <title>SOURCES</title>
    <g id="SOURCES_Calque_2">
      <title>Calque 2</title>
      <g id="Group_7986">
        <g id="Graphic_7988">
          <path d="M -741.0771 -4045 L -728.1247 -4045 C -725.9976 -4045 -724.27335 -4043.2757 -724.27335 -4041.1487 L -724.27335 -4028.04 C -724.27335 -4025.9128 -725.9976 -4024.1885 -728.1247 -4024.1885 L -741.0771 -4024.1885 C -743.2041 -4024.1885 -744.9284 -4025.9128 -744.9284 -4028.04 L -744.9284 -4041.1487 C -744.9284 -4043.2757 -743.2041 -4045 -741.0771 -4045 Z" fill="white"/>
          <path d="M -741.0771 -4045 L -728.1247 -4045 C -725.9976 -4045 -724.27335 -4043.2757 -724.27335 -4041.1487 L -724.27335 -4028.04 C -724.27335 -4025.9128 -725.9976 -4024.1885 -728.1247 -4024.1885 L -741.0771 -4024.1885 C -743.2041 -4024.1885 -744.9284 -4025.9128 -744.9284 -4028.04 L -744.9284 -4041.1487 C -744.9284 -4043.2757 -743.2041 -4045 -741.0771 -4045 Z" stroke="black" stroke-linecap="round" stroke-linejoin="round" stroke-width=".25"/>
        </g>
        <g id="Graphic_7987">
          <path d="M -744.422 -4041.8115 L -731.4696 -4041.8115 C -729.3426 -4041.8115 -727.6183 -4040.0872 -727.6183 -4037.96 L -727.6183 -4024.8513 C -727.6183 -4022.7243 -729.3426 -4021 -731.4696 -4021 L -744.422 -4021 C -746.54905 -4021 -748.27335 -4022.7243 -748.27335 -4024.8513 L -748.27335 -4037.96 C -748.27335 -4040.0872 -746.54905 -4041.8115 -744.422 -4041.8115 Z" fill="white"/>
          <path d="M -744.422 -4041.8115 L -731.4696 -4041.8115 C -729.3426 -4041.8115 -727.6183 -4040.0872 -727.6183 -4037.96 L -727.6183 -4024.8513 C -727.6183 -4022.7243 -729.3426 -4021 -731.4696 -4021 L -744.422 -4021 C -746.54905 -4021 -748.27335 -4022.7243 -748.27335 -4024.8513 L -748.27335 -4037.96 C -748.27335 -4040.0872 -746.54905 -4041.8115 -744.422 -4041.8115 Z" stroke="black" stroke-linecap="round" stroke-linejoin="round" stroke-width=".25"/>
        </g>
      </g>
      <g id="Graphic_8771">
        <path d="M -741.6016 -4031.8944 L -744.64305 -4030.329 C -745.0177 -4030.136 -745.2532 -4029.75 -745.2532 -4029.3285 L -745.2532 -4028.7435 C -745.2532 -4028.122 -744.7495 -4027.6185 -744.1281 -4027.6185 C -743.921 -4027.6185 -743.7531 -4027.4506 -743.7531 -4027.2435 C -743.7531 -4027.0364 -743.921 -4026.8685 -744.1281 -4026.8685 C -745.1637 -4026.8685 -746.0032 -4027.708 -746.0032 -4028.7435 L -746.0032 -4029.3285 C -746.0032 -4030.031 -745.6107 -4030.674 -744.9863 -4030.9956 L -742.468 -4032.292 C -743.2718 -4032.993 -743.7532 -4034.0143 -743.7532 -4035.1185 C -743.7532 -4037.1895 -742.0742 -4038.8685 -740.0032 -4038.8685 C -738.7457 -4038.8685 -737.59325 -4038.2445 -736.8997 -4037.224 C -736.7833 -4037.053 -736.8278 -4036.8195 -736.99905 -4036.703 C -737.1703 -4036.5867 -737.4036 -4036.631 -737.52 -4036.8025 C -738.0754 -4037.6196 -738.9968 -4038.1185 -740.0032 -4038.1185 C -741.66 -4038.1185 -743.0032 -4036.7753 -743.0032 -4035.1185 C -743.0032 -4034.0597 -742.4506 -4033.0967 -741.563 -4032.5553 C -741.38615 -4032.4474 -741.33025 -4032.2167 -741.4381 -4032.04 C -741.4785 -4031.9737 -741.5361 -4031.9244 -741.6016 -4031.8944 Z M -738.5322 -4028.6934 L -741.5937 -4027.302 C -741.9953 -4027.119 -742.2532 -4026.719 -742.2532 -4026.2776 L -742.2532 -4025.7435 C -742.2532 -4025.122 -741.7495 -4024.6185 -741.1282 -4024.6185 L -732.8782 -4024.6185 C -732.2568 -4024.6185 -731.7532 -4025.122 -731.7532 -4025.7435 L -731.7532 -4026.2776 C -731.7532 -4026.719 -732.011 -4027.119 -732.4126 -4027.302 L -735.4741 -4028.6934 C -735.9411 -4028.4846 -736.4586 -4028.3685 -737.0032 -4028.3685 C -737.5478 -4028.3685 -738.0652 -4028.4846 -738.5322 -4028.6934 Z M -739.3115 -4029.163 C -740.1891 -4029.8493 -740.7532 -4030.918 -740.7532 -4032.1185 C -740.7532 -4034.1895 -739.0742 -4035.8685 -737.0032 -4035.8685 C -734.9321 -4035.8685 -733.2532 -4034.1895 -733.2532 -4032.1185 C -733.2532 -4030.918 -733.8172 -4029.8493 -734.6948 -4029.163 L -732.1023 -4027.9845 C -731.4329 -4027.6803 -731.0032 -4027.013 -731.0032 -4026.2776 L -731.0032 -4025.7435 C -731.0032 -4024.708 -731.8426 -4023.8685 -732.8782 -4023.8685 L -741.1282 -4023.8685 C -742.1637 -4023.8685 -743.0032 -4024.708 -743.0032 -4025.7435 L -743.0032 -4026.2776 C -743.0032 -4027.013 -742.5734 -4027.6803 -741.904 -4027.9845 L -739.3115 -4029.163 Z M -737.0032 -4029.1185 C -735.3463 -4029.1185 -734.0032 -4030.4616 -734.0032 -4032.1185 C -734.0032 -4033.7753 -735.3463 -4035.1185 -737.0032 -4035.1185 C -738.66 -4035.1185 -740.0032 -4033.7753 -740.0032 -4032.1185 C -740.0032 -4030.4616 -738.66 -4029.1185 -737.0032 -4029.1185 Z" fill="#66727e"/>
      </g>
    </g>
  </g>
</svg>
